X:1
T:Pace-Egging Song
M:3/4
L:1/4
K:F
 C| A A G| A A G| A G F| c2 c/2B/2| A G F| G G G/2G/2| A G F| C2 A/2B/2|\
 c c d| B G A| B B c| A2 C/2C/2| F A F| G B G| c c c| F2 C/2C/2| F F C|\
 F F C| F G A| c2 c/2B/2| A G F| G G G| A G F| C2 A/2B/2| c c d| B G A|\
 B B c| A2 C/2C/2| F A F| D B G| c c c| F2||
